**harm	**harte	**timestamp	**phrase	**leadinstrument	**kern
*M4/4	*M4/4	*	*	*	*
*C:	*C:	*	*	*	*C:
1r;	N	0	.	r	1r;
=1	=1	=1	=1	=1	=1
*>A_intro	*>A_intro	*>A_intro	*>A_intro	*>A_intro	*>A_intro
1I	C:maj	0.264	newline	electric guitar	1C 1e 1g
=2	=2	=2	=2	=2	=2
1I	C:maj	2.847	.	electric guitar	1C 1e 1g
=3	=3	=3	=3	=3	=3
1IVc	F:maj/5	5.431	.	electric guitar	1f 1a 1C
=4	=4	=4	=4	=4	=4
1IVc	F:maj/5	8.014	.	electric guitar	1f 1a 1C
=5	=5	=5	=5	=5	=5
1I	C:maj6	10.597	newline	electric guitar	1C 1e 1g
=6	=6	=6	=6	=6	=6
1I	C:maj	13.152	.	electric guitar	1C 1e 1g
=7	=7	=7	=7	=7	=7
1IVc	F:maj(9)/5	15.706	.	electric guitar	1f 1a 1C
=8	=8	=8	=8	=8	=8
2IVc	F:maj6/5	18.261	.	electric guitar	2f 2a 2C
2IVc	F:maj/5	19.538	.	electric guitar	2f 2a 2C
=9	=9	=9	=9	=9	=9
*>B_verse	*>B_verse	*>B_verse	*>B_verse	*>B_verse	*>B_verse
1I	C:maj	20.816	newline	voice	1C 1e 1g
=10	=10	=10	=10	=10	=10
1I	C:maj	23.353	.	voice	1C 1e 1g
=11	=11	=11	=11	=11	=11
1I	C:maj	25.891	.	voice	1C 1e 1g
=12	=12	=12	=12	=12	=12
1I	C:maj	28.429	.	voice	1C 1e 1g
=13	=13	=13	=13	=13	=13
1V	G:maj	30.966	newline	voice	1G 1b 1dd
=14	=14	=14	=14	=14	=14
1ii7	D:min7	33.525	.	voice	1D 1f 1a 1cc
=15	=15	=15	=15	=15	=15
1I	C:maj	36.083	.	voice	1C 1e 1g
=16	=16	=16	=16	=16	=16
2.I	C:maj	38.641	.	voice	2C 2e 2g
4V	G:sus4(b7,9)	40.56	.	voice	4G 4b 4dd
=17	=17	=17	=17	=17	=17
1I	C:maj	41.2	newline	voice	1C 1e 1g
=18	=18	=18	=18	=18	=18
2.I	C:maj	43.767	.	voice	2C 2e 2g
4V	G:sus4(b7,9)	45.692	.	voice	4G 4b 4dd
=19	=19	=19	=19	=19	=19
1I	C:maj	46.334	.	voice	1C 1e 1g
=20	=20	=20	=20	=20	=20
1I	C:maj	48.901	.	voice	1C 1e 1g
=21	=21	=21	=21	=21	=21
1V	G:maj	51.468	newline	voice	1G 1b 1dd
=22	=22	=22	=22	=22	=22
1ii7	D:min7	54.02	.	voice	1D 1f 1a 1cc
=23	=23	=23	=23	=23	=23
1I	C:maj	56.571	.	voice	1C 1e 1g
=24	=24	=24	=24	=24	=24
2.I	C:maj	59.122	.	voice	2C 2e 2g
4vii	B:1	61.036	.	voice	4B 4dd 4ff#
=25	=25	=25	=25	=25	=25
*>C_chorus	*>C_chorus	*>C_chorus	*>C_chorus	*>C_chorus	*>C_chorus
1vi	A:min	61.674	newline	voice	1A 1cc 1ee
=26	=26	=26	=26	=26	=26
1ii	D:min	64.223	.	voice	1D 1f 1a
=27	=27	=27	=27	=27	=27
1vi	A:min	66.773	.	voice	1A 1cc 1ee
=28	=28	=28	=28	=28	=28
4ii	D:min	69.322	.	voice	4D 4f 4a
4iii	E:min	69.959	.	voice	4E 4g 4b
4IV	F:maj	70.596	.	voice	4F 4a 4cc
4V	G:sus4(b7,9)	71.234	.	voice	4G 4b 4dd
=29	=29	=29	=29	=29	=29
2I	C:maj	71.871	newline	voice	2C 2e 2g
2Vb	G:maj/3	73.185	.	voice	2g 2B 2dd
=30	=30	=30	=30	=30	=30
2vi	A:min	74.5	.	voice	2A 2cc 2ee
2iii	E:min	75.814	.	voice	2E 2g 2b
=31	=31	=31	=31	=31	=31
1IV	F:maj	77.128	.	voice	1F 1a 1cc
=32	=32	=32	=32	=32	=32
2IV7	F:maj7	79.757	.	voice	2F 2a 2cc 2ee
2IV	F:maj6	81.071	.	voice	2F 2a 2cc
=33	=33	=33	=33	=33	=33
*>A_interlude	*>A_interlude	*>A_interlude	*>A_interlude	*>A_interlude	*>A_interlude
1I	C:maj	82.385	newline	electric guitar	1C 1e 1g
=34	=34	=34	=34	=34	=34
1I	C:maj	84.932	.	electric guitar	1C 1e 1g
=35	=35	=35	=35	=35	=35
1IVc	F:maj(9)/5	87.478	.	electric guitar	1f 1a 1C
=36	=36	=36	=36	=36	=36
2IVc	F:maj6/5	90.024	.	electric guitar	2f 2a 2C
2IVc	F:maj/5	91.297	.	electric guitar	2f 2a 2C
=37	=37	=37	=37	=37	=37
*>B_verse	*>B_verse	*>B_verse	*>B_verse	*>B_verse	*>B_verse
1I	C:maj	92.57	newline	voice	1C 1e 1g
=38	=38	=38	=38	=38	=38
1I	C:maj	95.136	.	voice	1C 1e 1g
=39	=39	=39	=39	=39	=39
1I	C:maj	97.701	.	voice	1C 1e 1g
=40	=40	=40	=40	=40	=40
1I	C:maj	100.267	.	voice	1C 1e 1g
=41	=41	=41	=41	=41	=41
1V	G:maj	102.832	newline	voice	1G 1b 1dd
=42	=42	=42	=42	=42	=42
1ii7	D:min7	105.394	.	voice	1D 1f 1a 1cc
=43	=43	=43	=43	=43	=43
1I	C:maj	107.956	.	voice	1C 1e 1g
=44	=44	=44	=44	=44	=44
2.I	C:maj	110.518	.	voice	2C 2e 2g
4V	G:sus4(b7,9)	112.439	.	voice	4G 4b 4dd
=45	=45	=45	=45	=45	=45
1I	C:maj	113.08	newline	voice	1C 1e 1g
=46	=46	=46	=46	=46	=46
2.I	C:maj	115.654	.	voice	2C 2e 2g
4V	G:sus4(b7,9)	117.585	.	voice	4G 4b 4dd
=47	=47	=47	=47	=47	=47
1I	C:maj	118.228	.	voice	1C 1e 1g
=48	=48	=48	=48	=48	=48
1I	C:maj	120.803	.	voice	1C 1e 1g
=49	=49	=49	=49	=49	=49
1V	G:maj	123.377	newline	voice	1G 1b 1dd
=50	=50	=50	=50	=50	=50
1ii7	D:min7	125.897	.	voice	1D 1f 1a 1cc
=51	=51	=51	=51	=51	=51
1I	C:maj	128.417	.	voice	1C 1e 1g
=52	=52	=52	=52	=52	=52
1I	C:maj	130.937	.	voice	1C 1e 1g
=53	=53	=53	=53	=53	=53
*>D_bridge	*>D_bridge	*>D_bridge	*>D_bridge	*>D_bridge	*>D_bridge
2IV7	F:maj7	133.457	newline	voice	2F 2a 2cc 2ee
2IV	F:maj6	134.712	.	voice	2F 2a 2cc
=54	=54	=54	=54	=54	=54
2IV7	F:maj7	135.967	.	voice	2F 2a 2cc 2ee
2IV	F:maj6	137.221	.	voice	2F 2a 2cc
=55	=55	=55	=55	=55	=55
1I	C:maj	138.476	.	voice	1C 1e 1g
=56	=56	=56	=56	=56	=56
1I	C:maj	140.986	.	voice	1C 1e 1g
=57	=57	=57	=57	=57	=57
2IV7	F:maj7	143.496	newline	voice	2F 2a 2cc 2ee
2IV	F:maj6	144.767	.	voice	2F 2a 2cc
=58	=58	=58	=58	=58	=58
2IV7	F:maj7	146.037	.	voice	2F 2a 2cc 2ee
2IV	F:maj6	147.308	.	voice	2F 2a 2cc
=59	=59	=59	=59	=59	=59
1ii7	D:min7	148.579	.	voice	1D 1f 1a 1cc
=60	=60	=60	=60	=60	=60
1III	E:maj	151.121	.	voice	1E 1g# 1b
=61	=61	=61	=61	=61	=61
*>C_chorus	*>C_chorus	*>C_chorus	*>C_chorus	*>C_chorus	*>C_chorus
1vi	A:min	153.662	newline	voice	1A 1cc 1ee
=62	=62	=62	=62	=62	=62
1ii	D:min	156.214	.	voice	1D 1f 1a
=63	=63	=63	=63	=63	=63
1vi	A:min	158.766	.	voice	1A 1cc 1ee
=64	=64	=64	=64	=64	=64
4ii	D:min	161.318	.	voice	4D 4f 4a
4iii	E:min	161.956	.	voice	4E 4g 4b
4IV	F:maj	162.593	.	voice	4F 4a 4cc
4V	G:sus4(b7,9)	163.231	.	voice	4G 4b 4dd
=65	=65	=65	=65	=65	=65
2I	C:maj	163.869	newline	voice	2C 2e 2g
2Vb	G:maj/3	165.149	.	voice	2g 2B 2dd
=66	=66	=66	=66	=66	=66
2vi	A:min	166.428	.	voice	2A 2cc 2ee
2iii	E:min	167.708	.	voice	2E 2g 2b
=67	=67	=67	=67	=67	=67
1IV	F:maj	168.987	.	voice	1F 1a 1cc
=68	=68	=68	=68	=68	=68
2IV7	F:maj7	171.546	.	voice	2F 2a 2cc 2ee
2IV	F:maj6	172.826	.	voice	2F 2a 2cc
=69	=69	=69	=69	=69	=69
*>A_outro	*>A_outro	*>A_outro	*>A_outro	*>A_outro	*>A_outro
1I	C:maj	174.105	newline	voice	1C 1e 1g
=70	=70	=70	=70	=70	=70
1Vf	G:maj/4	176.651	.	voice	1G 1b 1dd
=71	=71	=71	=71	=71	=71
1IV7	F:maj7	179.197	.	voice	1F 1a 1cc 1ee
=72	=72	=72	=72	=72	=72
1IV7	F:maj7	181.743	.	voice	1F 1a 1cc 1ee
=73	=73	=73	=73	=73	=73
1I	C:maj	184.289	newline	.	1C 1e 1g
=74	=74	=74	=74	=74	=74
1Vf	G:maj/4	186.838	.	.	1G 1b 1dd
=75	=75	=75	=75	=75	=75
1IV7	F:maj7	189.386	.	.	1F 1a 1cc 1ee
=76	=76	=76	=76	=76	=76
1IV7	F:maj7	191.935	.	.	1F 1a 1cc 1ee
=77	=77	=77	=77	=77	=77
1I	C:maj	194.484	.	.	1C 1e 1g
=78	=78	=78	=78	=78	=78
1Vf	G:maj/4	197.032	.	.	1G 1b 1dd
=79	=79	=79	=79	=79	=79
1IV7	F:maj7	199.581	.	.	1F 1a 1cc 1ee
=80	=80	=80	=80	=80	=80
1IV7	F:maj7	202.129	.	.	1F 1a 1cc 1ee
=81	=81	=81	=81	=81	=81
1I	C:maj	204.678	newline	fadeout voice	1C 1e 1g
=82	=82	=82	=82	=82	=82
1Vf	G:maj/4	206.976	.	fadeout voice	1G 1b 1dd
=83	=83	=83	=83	=83	=83
1IV7	F:maj7	209.274	.	fadeout voice	1F 1a 1cc 1ee
=84	=84	=84	=84	=84	=84
1IV7	F:maj7	211.573	.	fadeout voice	1F 1a 1cc 1ee
=85	=85	=85	=85	=85	=85
1I	C:maj	213.871	.	fadeout voice	1C 1e 1g
=86	=86	=86	=86	=86	=86
1Vf	G:maj/4	216.17	.	fadeout voice	1G 1b 1dd
=87	=87	=87	=87	=87	=87
1IV7	F:maj7	218.468	.	fadeout voice	1F 1a 1cc 1ee
=88	=88	=88	=88	=88	=88
1IV7	F:maj7	220.766	.	fadeout voice	1F 1a 1cc 1ee
1r;	N	223.065	.	r	1r;
1r;	N	223.974	.	r	1r;
*-	*-	*-	*-	*-	*-
!!!OTL: Take Me Down
!!!COC: Alabama
!!!BillboardChartDate: 1982/07/17
!!!BillboardPeak: 18
!!!BillboardWeeksOnChart: 13
!!!SampleTargetRank: 19
!!!SampleActualRank: 18
!!!SampleID#: 1082
!!!RDF**harmony: **recip + pitch class of root + harmonic quality
!!!RDF**harte: Chris Harte's syntax, used by MIREX
!!!RDF**phrase: newline = linebreak in original McGill transcription
!!!RDF**timestamp: McGill audio timestamp in seconds
!!!RDF**leadinstrument: original McGill primary instrumentation annotation
!!!RDT: 2017/01/12/
!!!ENC: Nathaniel Condit-Schultz
!!!EST: Awating manual error checking and editing.
